static/icons/linkedin.svg

<svg height="26pt" viewBox="0 0 26 26" width="26pt" xmlns="http://www.w3.org/2000/svg"><path d="m21.125 0h-16.25c-2.691406 0-4.875 2.183594-4.875 4.875v16.25c0 2.691406 2.183594 4.875 4.875 4.875h16.25c2.691406 0 4.875-2.183594 4.875-4.875v-16.25c0-2.691406-2.183594-4.875-4.875-4.875zm-13.085938 22.070312h-4.039062l-.023438-12.09375h4.039063zm-2.121093-13.675781h-.023438c-1.320312 0-2.171875-.910156-2.171875-2.042969 0-1.160156.878906-2.039062 2.222656-2.039062s2.167969.878906 2.195313 2.039062c0 1.132813-.855469 2.042969-2.222656 2.042969zm16.125 13.675781h-4.074219v-6.570312c0-1.589844-.421875-2.671875-1.84375-2.671875-1.085938 0-1.671875.730469-1.953125 1.4375-.105469.253906-.132813.601563-.132813.957031v6.847656h-4.09375l-.023437-12.09375h4.09375l.023437 1.707032c.523438-.808594 1.394532-1.953125 3.480469-1.953125 2.585938 0 4.519531 1.6875 4.519531 5.316406v7.023437zm0 0" fill="#7c74ff"/></svg>

<?xml version="1.0" encoding="UTF-8"?>
<svg xmlns="http://www.w3.org/2000/svg" 
  xmlns:xlink="http://www.w3.org/1999/xlink" width="26pt" height="26pt" viewBox="0 0 26 26" version="1.1">
  <g id="surface1031203">
    <path style=" stroke:none;fill-rule:nonzero;fill:rgb(48.627451%,45.490196%,100%);fill-opacity:1;" d="M 21.125 0 L 4.875 0 C 2.183594 0 0 2.183594 0 4.875 L 0 21.125 C 0 23.816406 2.183594 26 4.875 26 L 21.125 26 C 23.816406 26 26 23.816406 26 21.125 L 26 4.875 C 26 2.183594 23.816406 0 21.125 0 Z M 8.039062 22.070312 L 4 22.070312 L 3.976562 9.976562 L 8.015625 9.976562 Z M 5.917969 8.394531 L 5.894531 8.394531 C 4.574219 8.394531 3.722656 7.484375 3.722656 6.351562 C 3.722656 5.191406 4.601562 4.3125 5.945312 4.3125 C 7.289062 4.3125 8.113281 5.191406 8.140625 6.351562 C 8.140625 7.484375 7.285156 8.394531 5.917969 8.394531 Z M 22.042969 22.070312 L 17.96875 22.070312 L 17.96875 15.5 C 17.96875 13.910156 17.546875 12.828125 16.125 12.828125 C 15.039062 12.828125 14.453125 13.558594 14.171875 14.265625 C 14.066406 14.519531 14.039062 14.867188 14.039062 15.222656 L 14.039062 22.070312 L 9.945312 22.070312 L 9.921875 9.976562 L 14.015625 9.976562 L 14.039062 11.683594 C 14.5625 10.875 15.433594 9.730469 17.519531 9.730469 C 20.105469 9.730469 22.039062 11.417969 22.039062 15.046875 L 22.039062 22.070312 Z M 22.042969 22.070312 "/>
  </g>
</svg>
